X:1
T:Title
%%score { ( 1 3 ) | ( 2 4 ) }
L:1/8
Q:1/4=114
M:6/4
K:Eb
V:1 treble nm="Grand Piano"
V:3 treble 
V:2 bass 
V:4 bass 
V:1
 G4 G2 F4 E2 | [FB]4 B2 B4 B2 | c4 c2 B4 G2 | G3 F E2 [DF]6 | G4 G2 F4 E2 | [FB]4 B2 B4 B2 | %6
w: Chas.~H.~Gabriel * * *||||||
 c4 e2 B4 G2 | [B,DG]4 [A,DF]2 [G,E]6 | [EGB]4 [Ge]2 [Ae]4 [Ad]2 | [DAc]4 [DAd]2 [Ac]4 [GB]2 | %10
w: ||||
 [Ge]4 [DAB]2 [EB]4 [B,EG]2 | [=A,EG]4 [A,CE]2 [B,DF]6 | G4 G2 F4 E2 | [FB]4 B2 B4 B2 | %14
w: ||||
 c4 e2 B4 G2 | [DG]4 [DF]2 E6 |] %16
w: ||
V:2
 [E,B,E]4 [E,B,E]2 [E,A,B,]4 [E,G,B,]2 | [D,A,]4 [E,G,E]2 [F,A,D]4 [G,B,E]2 | %2
 [A,E]4 [A,E]2 [G,B,E]4 [E,B,E]2 | [C,=A,]4 [F,A,C]2 [B,,B,]6 | %4
 [E,B,E]4 [E,B,E]2 [E,A,B,]4 [E,G,]2 | [D,A,]4 [E,G,E]2 [F,A,D]4 [G,B,E]2 | %6
 [A,E]4 [A,CE]2 [G,E]4 [E,B,E]2 | B,,4 B,,2 E,6 | E,4 [E,B,]2 [F,B,]4 [F,B,]2 | %9
 B,,4 B,,2 [E,E]4 [E,E]2 | [C,C]4 F,2 G,4 E,2 | z2 z F F,2 B,,6 | %12
 [E,B,E]4 [E,B,E]2 [E,A,B,]4 [E,G,B,]2 | [D,A,]4 [E,G,E]2 [F,A,D]4 [G,B,E]2 | %14
 [A,E]4 [A,CE]2 [G,E]4 [E,B,E]2 | [B,,B,]4 [B,,A,]2 [E,G,]6 |] %16
V:3
 x12 | x12 | x12 | .E6 z6 | x12 | x12 | x12 | x12 | x12 | x12 | x12 | x12 | x12 | x12 | x12 | %15
 x12 |] %16
V:4
 x12 | x12 | x12 | x12 | x12 | x12 | x12 | x12 | x12 | x12 | x12 | .C,6 z6 | x12 | x12 | x12 | %15
 x12 |] %16

